svg/qr-scan.svg

<svg xmlns="http://www.w3.org/2000/svg" viewBox="0 0 64 64" enable-background="new 0 0 64 64"><style type="text/css">.st0{fill:#343434;}</style><title>qr-scan</title><desc>Created with Sketch.</desc><path class="st0" d="M4 51v-11h-4v12c0 6.6 5.4 12 12 12h12v-4h-11c-5 0-9-4-9-9zM0 12v12h4v-11c0-5 4-9 9-9h11v-4h-12c-6.6 0-12 5.4-12 12zM52 0h-12v4h11c5 0 9 4 9 9v11h4v-12c0-6.6-5.4-12-12-12zM60 51c0 5-4 9-9 9h-11v4h12c6.6 0 12-5.4 12-12v-12h-4v11z"/></svg>

<?xml version="1.0" encoding="utf-8"?>
<!-- Generator: Adobe Illustrator 21.0.0, SVG Export Plug-In . SVG Version: 6.00 Build 0)  -->
<svg version="1.1" id="Layer_1" xmlns="http://www.w3.org/2000/svg" xmlns:xlink="http://www.w3.org/1999/xlink" x="0px" y="0px"
	 viewBox="0 0 64 64" style="enable-background:new 0 0 64 64;" xml:space="preserve">
<style type="text/css">
	.st0{fill:#343434;}
</style>
<title>qr-scan</title>
<desc>Created with Sketch.</desc>
<g>
	<path class="st0" d="M4,51V40H0v12c0,6.6,5.4,12,12,12h12v-4H13C8,60,4,56,4,51z"/>
	<path class="st0" d="M0,12v12h4V13c0-5,4-9,9-9h11V0H12C5.4,0,0,5.4,0,12z"/>
	<path class="st0" d="M52,0H40v4h11c5,0,9,4,9,9v11h4V12C64,5.4,58.6,0,52,0z"/>
	<path class="st0" d="M60,51c0,5-4,9-9,9H40v4h12c6.6,0,12-5.4,12-12V40h-4V51z"/>
</g>
</svg>
